X: 20832
T: Arthur's Seat
%R: reel
B: James Oswald "The Caledonian Pocket Companion" v.2 p.83 #2
Z: 2019 John Chambers <jc:trillian.mit.edu>
M: C
L: 1/8
K: G
|:"_Brisk"\
G(B/c/) dg edBG | cABG E/E/E A2 | GB/c/ dg edcG | cABG E/E/E G2 :: g>agf ecce |
a>bag (f<d)f2 | g>agf edeg | dBTAG A<E G2 :: (B/c/d) BG (c/d/e) cA | B/c/d BG FGA2 |
(B/c/d) BG (c/d/e) cA | (B/c/d) BG AEG2 :: g>agf ecce | abeg f<dTf2 | g>ag>f edBg | dBTAG (A<E) G2 :|
